X:1
T:See, Lord, Before Thy Throne
T:F. W. Clunk, harm. by C. B.
T:See, Lord, Before Thy Throne
T:Public Domain
T:Public Domain
C:F. W. Clunk, harm. by C. B.
Z:Public Domain
%%score ( 1 2 ) ( 3 4 )
L:1/8
M:2/4
K:Eb
V:1 treble 
V:2 treble 
V:3 bass 
V:4 bass 
V:1
 [EG]2 | [EG]3 [EG] | [E^F][EG] [E_A][EG] | [DB]2 [DF]2 | [DA]2 [EG]2- | [EG]2 [EG]2 | [DF]3 E x4 | %7
w: See,|Lord, be-|fore Thy throne Thy|child- ren|bend- ing|* Ere|from Thy|
 [Ec][EB] [D_A][EG] | [EG]2 [EF]2 | [DF]4- | [DF]2 [DB]2 | [EB]3 [EB] | [E=A][EB] [Ec][EB] | %13
w: we take our home-|ward way;|We|* seek|Thy guid-|ance each young life|
 [EA]2 [EG]2 | [DB]2 [DF]2- | [DF]2 [CE]2 | [Ec]3 [Ec] | [EB][EG] [EB][EA] | [EG]2 [DF]2 | E2 B,2 | %20
w: de- fend-|ing From|* harm|and dan-|ger both by night|and day—|Until, un-|
 E2 [_DE]2 | [CE]3 [CE] | [_CE]2 [CF]2 | [B,G]4- | [B,G]4 |] %25
w: * til|meet a-|gain. *|||
V:2
 x2 | x4 | x4 | x4 | x4 | x4 | x3 E x4 | x4 | x4 | x4 | x4 | x4 | x4 | x4 | x4 | x4 | x4 | x4 | %18
w: ||||||house||||||||||||
 x4 | E4- | E2 x2 | x4 | x4 | x4 | x4 |] %25
w: ||we|||||
V:3
 [E,B,]2 | [E,B,]3 [E,B,] | [E,=A,][E,B,] [E,C][E,B,] | (B,F,) [B,,B,]2 | [E,B,]2 [E,B,]2- | %5
 [E,B,]2 [E,B,]2 | [A,B,]3 [G,B,][^F,=A,][G,B,][=F,B,][E,B,] | [A,,C]2 [=A,,C]2 | B,2 F,2 | %9
 [B,,B,]2 [B,,A,]2 | [E,G,]3 [E,G,] | [E,^F,][E,G,] [E,_A,][E,G,] | [E,C]2 [E,B,]2 | %13
 [B,,B,]2 [B,,-B,]2 | [B,,A,]2 [C,G,]2 | [A,,A,]3 [A,,A,] | [B,,G,][B,,B,] [B,,D][B,,C] | %17
 [B,,B,]2 [B,,A,]2 | [E,G,]4- | [E,G,]2 [G,,E,]2 | [A,,A,]3 [A,,A,] | [A,,A,]2 [A,,E,]2 | %22
 E,2 B,,2 | E,4 | x4 |] %25
V:4
 x2 | x4 | x4 | B,,2 x2 | x4 | x4 | x8 | x4 | B,,4- | x4 | x4 | x4 | x4 | x4 | x4 | x4 | x4 | x4 | %18
 x4 | x4 | x4 | x4 | E,4- | E,4 | x4 |] %25

